icons/sqlite/sqlite-original-wordmark.svg

<?xml version="1.0" encoding="UTF-8" standalone="no"?>
<!-- Created with Inkscape (http://www.inkscape.org/) -->

<svg
   width="180"
   height="180"
   viewBox="0 0 180 180"
   version="1.1"
   id="svg5"
   sodipodi:docname="sqlite-original-wordmark.svg"
   inkscape:version="1.1.1 (3bf5ae0d25, 2021-09-20)"
   xmlns:inkscape="http://www.inkscape.org/namespaces/inkscape"
   xmlns:sodipodi="http://sodipodi.sourceforge.net/DTD/sodipodi-0.dtd"
   xmlns="http://www.w3.org/2000/svg"
   xmlns:svg="http://www.w3.org/2000/svg">
  <sodipodi:namedview
     id="namedview51"
     pagecolor="#505050"
     bordercolor="#eeeeee"
     borderopacity="1"
     inkscape:pageshadow="0"
     inkscape:pageopacity="0"
     inkscape:pagecheckerboard="0"
     showgrid="false"
     inkscape:zoom="4.6222222"
     inkscape:cx="89.891827"
     inkscape:cy="89.891827"
     inkscape:window-width="1920"
     inkscape:window-height="1017"
     inkscape:window-x="-8"
     inkscape:window-y="-8"
     inkscape:window-maximized="1"
     inkscape:current-layer="svg5" />
  <defs
     id="defs2">
    <linearGradient
       id="linear0"
       gradientUnits="userSpaceOnUse"
       x1="-15.614694"
       y1="-9.1082983"
       x2="-6.7410069"
       y2="-9.1082983"
       gradientTransform="matrix(-1.68377e-7,3.871086,-3.848825,-1.69351e-7,-10.333701,68.140363)">
      <stop
         offset="0"
         style="stop-color:rgb(59.215686%,85.098039%,96.470588%);stop-opacity:1;"
         id="stop40" />
      <stop
         offset="0.920245"
         style="stop-color:rgb(5.882353%,50.196078%,80%);stop-opacity:1;"
         id="stop42" />
      <stop
         offset="1"
         style="stop-color:rgb(5.882353%,50.196078%,80%);stop-opacity:1;"
         id="stop44" />
    </linearGradient>
  </defs>
  <g
     id="layer1"
     transform="matrix(1,0,0,0.9999987,0,-0.17393487)">
    <g
       id="surface1"
       transform="matrix(1.4845839,0,0,1.4845839,-4.9756748,44.996128)">
      <path
         style="fill:#003a57;fill-opacity:1;fill-rule:nonzero;stroke:none"
         d="m 49.433594,30.066406 c -1.613282,0 -2.929688,0.484375 -3.9375,1.445313 -1.007813,0.960937 -1.515625,2.222656 -1.515625,3.769531 0,0.800781 0.125,1.53125 0.375,2.203125 0.25,0.667969 0.640625,1.289063 1.164062,1.851563 0.523438,0.5625 1.570313,1.324218 3.128907,2.296874 1.914062,1.175782 3.167968,2.128907 3.769531,2.875 0.601562,0.742188 0.902343,1.523438 0.902343,2.335938 0,1.089844 -0.355468,1.960938 -1.089843,2.613281 -0.734375,0.652344 -1.714844,0.980469 -2.933594,0.980469 -1.28125,0 -2.398437,-0.457031 -3.359375,-1.359375 -0.960938,-0.90625 -1.445312,-2.101563 -1.457031,-3.601563 h -0.59375 v 5.445313 h 0.59375 c 0.183593,-0.515625 0.4375,-0.78125 0.765625,-0.78125 0.160156,0 0.53125,0.109375 1.109375,0.316406 1.410156,0.503907 2.566406,0.75 3.476562,0.75 1.566407,0 2.90625,-0.554687 4.019531,-1.675781 1.113282,-1.121094 1.675782,-2.476562 1.675782,-4.054688 0,-1.226562 -0.371094,-2.316406 -1.097656,-3.265624 -0.730469,-0.949219 -2.144532,-2.058594 -4.261719,-3.328126 -1.820313,-1.101562 -3.003907,-1.996093 -3.550781,-2.695312 -0.546876,-0.699219 -0.828126,-1.46875 -0.828126,-2.316406 0,-0.917969 0.335938,-1.652344 0.996094,-2.203125 0.660156,-0.546875 1.523438,-0.820313 2.609375,-0.820313 1.214844,0 2.230469,0.363282 3.035157,1.09375 0.800781,0.734375 1.265624,1.75 1.402343,3.054688 h 0.597657 v -4.71875 H 53.875 c -0.07031,0.242187 -0.132812,0.394531 -0.1875,0.464844 -0.05859,0.07031 -0.164062,0.105468 -0.328125,0.105468 -0.191406,0 -0.535156,-0.08203 -1.023437,-0.242187 C 51.289062,30.25 50.324219,30.066406 49.433594,30.066406 Z m 19.507812,0 c -1.96875,0 -3.753906,0.46875 -5.371094,1.402344 -1.617187,0.933594 -2.898437,2.226562 -3.84375,3.875 -0.941406,1.648438 -1.414062,3.402344 -1.414062,5.265625 0,2.507813 0.816406,4.742187 2.460938,6.699219 1.648437,1.957031 3.617187,3.175781 5.90625,3.644531 0.523437,0.273437 1.273437,0.980469 2.253906,2.128906 1.101562,1.289063 2.035156,2.222657 2.804687,2.777344 0.765625,0.558594 1.597657,0.964844 2.472657,1.234375 0.875,0.265625 1.820312,0.398438 2.847656,0.398438 1.238281,0 2.351562,-0.214844 3.328125,-0.664063 l -0.21875,-0.546875 c -0.570313,0.207031 -1.175781,0.304688 -1.8125,0.304688 -0.863281,0 -1.738281,-0.285157 -2.617188,-0.863282 -0.875,-0.578125 -1.972656,-1.679687 -3.277343,-3.304687 -0.613282,-0.78125 -1.039063,-1.273438 -1.277344,-1.464844 2.503906,-0.492187 4.5625,-1.710937 6.167968,-3.664063 1.605469,-1.953124 2.40625,-4.179687 2.40625,-6.679687 0,-2.964844 -1.046874,-5.457031 -3.128906,-7.488281 -2.085937,-2.03125 -4.648437,-3.054688 -7.6875,-3.054688 z m 12.179688,0 0.03125,0.644532 c 1.308594,0 2.042968,0.386718 2.207031,1.167968 0.0625,0.28125 0.08984,0.796875 0.09766,1.539063 L 83.445312,47.625 c -0.01172,1.0625 -0.160156,1.738281 -0.449218,2.03125 -0.289063,0.292969 -0.78125,0.476562 -1.488282,0.546875 l -0.03125,0.644531 H 94.542969 L 94.878906,47.625 H 94.28125 c -0.167969,0.878906 -0.558594,1.507812 -1.183594,1.863281 -0.621094,0.359375 -1.726562,0.539063 -3.316406,0.539063 h -1.238281 c -1.433594,0 -2.261719,-0.523438 -2.480469,-1.570313 C 86.019531,48.25 86.003906,48.027344 86,47.78125 l 0.05078,-14.363281 c 0,-1.058594 0.132813,-1.769531 0.410157,-2.117188 0.277343,-0.347656 0.78125,-0.539062 1.507812,-0.589843 L 87.9375,30.066406 Z m -11.96875,0.78125 c 2.21875,0 4.035156,0.878906 5.433594,2.652344 1.402343,1.777344 2.09375,4.210938 2.09375,7.289062 0,2.917969 -0.703126,5.257813 -2.113282,7.015626 -1.410156,1.757812 -3.289062,2.632812 -5.625,2.632812 -2.242187,0 -4.058594,-0.902344 -5.453125,-2.71875 -1.394531,-1.8125 -2.085937,-4.167969 -2.085937,-7.066406 0,-2.976563 0.699218,-5.359375 2.105468,-7.140625 1.40625,-1.777344 3.289063,-2.664063 5.644532,-2.664063 z m 30.050781,3.054688 c -0.316406,0 -0.5625,0.109375 -0.742187,0.324218 -0.1875,0.21875 -0.242188,0.480469 -0.179688,0.800782 0.0625,0.3125 0.238281,0.582031 0.515625,0.8125 0.273437,0.226562 0.570313,0.347656 0.890625,0.347656 0.304688,0 0.54297,-0.121094 0.71094,-0.347656 0.16797,-0.230469 0.21875,-0.5 0.15625,-0.8125 -0.0664,-0.320313 -0.23438,-0.582032 -0.49219,-0.800782 -0.261719,-0.214843 -0.550781,-0.324218 -0.859375,-0.324218 z m 8.617185,2.179687 c -0.53906,2.09375 -1.71484,3.230469 -3.51562,3.410157 l 0.0195,0.601562 h 2.10547 l -0.043,7.097656 c 0.004,1.214844 0.0391,2.023438 0.125,2.433594 0.20703,0.984375 0.84766,1.484375 1.91797,1.484375 1.54687,0 3.17187,-0.945313 4.86719,-2.84375 l -0.51172,-0.441406 c -1.22657,1.25 -2.3086,1.875 -3.25782,1.875 -0.58203,0 -0.9414,-0.335938 -1.07812,-1 -0.0352,-0.160157 -0.0508,-0.351563 -0.0508,-0.570313 l 0.0195,-8.035156 h 3.21484 l -0.0312,-0.957031 h -3.17187 V 36.082031 Z M 120.25,38.757812 c -1.79687,0 -3.25781,0.878907 -4.39844,2.621094 -1.1289,1.746094 -1.48047,3.683594 -1.03515,5.8125 0.26172,1.25 0.78515,2.214844 1.58203,2.898438 0.79687,0.679687 1.80859,1.019531 3.01562,1.019531 1.125,0 2.69141,-0.285156 3.35157,-0.863281 0.66015,-0.574219 1.26953,-1.511719 1.83203,-2.789063 l -0.44922,-0.476562 c -0.89844,1.660156 -2.71094,2.496093 -4.07422,2.496093 -1.87891,0 -3.02734,-1.035156 -3.45703,-3.09375 -0.0547,-0.265624 -0.0977,-0.546874 -0.125,-0.84375 2.23437,-0.355468 3.92578,-0.984374 5.0664,-1.894531 1.14454,-0.910156 2.28907,-1.878906 2.07422,-2.898437 -0.125,-0.605469 -0.4414,-1.082032 -0.92187,-1.441406 -0.48828,-0.359376 -1.75391,-0.546876 -2.46094,-0.546876 z m -19.65234,0.07422 -3.875004,0.894531 v 0.695313 l 1.339844,-0.16797 c 0.648438,0 1.03125,0.292969 1.152344,0.882813 0.03906,0.199219 0.06641,0.472656 0.07422,0.820312 l -0.04297,6.375 c -0.01172,0.878907 -0.109375,1.390625 -0.304688,1.546875 -0.195312,0.152344 -0.714844,0.230469 -1.558594,0.230469 l -0.02344,0.601563 h 6.148438 l -0.0117,-0.601563 c -0.85156,0 -1.40625,-0.06641 -1.65234,-0.199219 -0.24219,-0.132812 -0.41016,-0.371094 -0.48437,-0.738281 -0.0547,-0.261719 -0.0781,-0.71875 -0.082,-1.347656 l 0.0195,-8.992188 z m 18.66797,1.179688 c 0.375,0 0.73828,0.144531 1.10156,0.429687 0.35937,0.285156 0.57812,0.605469 0.64844,0.949219 0.35156,1.691406 -1.14063,2.863281 -4.50391,3.515625 -0.0937,-1.234375 0.11719,-2.355469 0.66016,-3.367188 0.53906,-1.015624 1.24218,-1.527343 2.09375,-1.527343 z m 0,0"
         id="path49" />
      <path
         style="fill:#0c7fcc;fill-opacity:1;fill-rule:nonzero;stroke:none"
         d="M 40.757812,5.742188 H 7.414062 c -2.234374,0 -4.0625,1.839843 -4.0625,4.085937 V 46.8125 c 0,2.246094 1.828126,4.085938 4.0625,4.085938 H 29.375 C 29.125,39.90625 32.855469,18.578125 40.757812,5.742188 Z m 0,0"
         id="path51" />
      <path
         style="fill:url(#linear0);fill-rule:nonzero;stroke:none"
         d="M 39.542969,6.933594 H 7.414062 c -1.585937,0 -2.878906,1.296875 -2.878906,2.894531 v 34.285156 c 7.277344,-2.808593 18.199219,-5.234375 25.75,-5.121093 1.519532,-7.984376 5.980469,-23.625 9.257813,-32.058594 z m 0,0"
         id="path53" />
      <path
         style="fill:#003a57;fill-opacity:1;fill-rule:nonzero;stroke:none"
         d="M 48.535156,4.53125 C 46.25,2.484375 43.484375,3.304688 40.757812,5.742188 c -0.40625,0.359374 -0.8125,0.761718 -1.214843,1.191406 -4.667969,4.980468 -9,14.207031 -10.34375,21.253906 0.523437,1.066406 0.933593,2.433594 1.203125,3.476562 0.06641,0.265626 0.128906,0.519532 0.179687,0.730469 0.121094,0.507813 0.183594,0.835938 0.183594,0.835938 0,0 -0.04297,-0.160157 -0.214844,-0.660157 -0.03125,-0.09766 -0.07031,-0.203124 -0.113281,-0.328124 -0.01563,-0.05078 -0.04297,-0.109376 -0.07031,-0.175782 -0.304688,-0.714844 -1.148438,-2.214844 -1.519532,-2.871094 -0.316406,0.941407 -0.59375,1.820313 -0.828125,2.617188 1.066407,1.96875 1.71875,5.34375 1.71875,5.34375 0,0 -0.05469,-0.21875 -0.324219,-0.980469 C 29.175781,35.5 27.988281,33.40625 27.703125,32.914062 c -0.480469,1.789063 -0.671875,2.996094 -0.5,3.292969 0.335937,0.570313 0.65625,1.550781 0.9375,2.640625 0.632813,2.449219 1.070313,5.429688 1.070313,5.429688 0,0 0.01562,0.199218 0.03906,0.503906 -0.08594,2.054688 -0.03516,4.1875 0.125,6.117188 0.207031,2.550781 0.605469,4.742187 1.105469,5.917968 l 0.34375,-0.1875 c -0.738281,-2.3125 -1.039063,-5.34375 -0.910157,-8.835937 0.199219,-5.339844 1.421876,-11.78125 3.679688,-18.492188 C 37.410156,19.167969 42.699219,11.039062 47.542969,7.15625 43.128906,11.167969 37.15625,24.144531 35.367188,28.953125 c -2.003907,5.378906 -3.421876,10.429687 -4.277344,15.269531 1.476562,-4.535156 6.246094,-6.484375 6.246094,-6.484375 0,0 2.339843,-2.902343 5.074218,-7.050781 -1.636718,0.375 -4.328125,1.019531 -5.226562,1.398438 -1.332032,0.5625 -1.6875,0.753906 -1.6875,0.753906 0,0 4.304687,-2.636719 7.996094,-3.832032 C 48.570312,20.960938 54.105469,9.53125 48.535156,4.53125"
         id="path55" />
    </g>
  </g>
</svg>

<?xml version="1.0" encoding="UTF-8"?>
<svg xmlns="http://www.w3.org/2000/svg" xmlns:xlink="http://www.w3.org/1999/xlink" width="128px" height="px" viewBox="0 0 128 128" version="1.1">
<defs>
<linearGradient id="linear0" gradientUnits="userSpaceOnUse" x1="-15.614694" y1="-9.108298" x2="-6.741007" y2="-9.108298" gradientTransform="matrix(-0.000000168377,3.871086,-3.848825,-0.000000169351,-10.333701,68.140363)">
<stop offset="0" style="stop-color:rgb(59.215686%,85.098039%,96.470588%);stop-opacity:1;"/>
<stop offset="0.920245" style="stop-color:rgb(5.882353%,50.196078%,80%);stop-opacity:1;"/>
<stop offset="1" style="stop-color:rgb(5.882353%,50.196078%,80%);stop-opacity:1;"/>
</linearGradient>
</defs>
<g id="surface1">
<path style=" stroke:none;fill-rule:nonzero;fill:rgb(0%,23.137255%,34.117647%);fill-opacity:1;" d="M 49.433594 30.066406 C 47.820312 30.066406 46.503906 30.550781 45.496094 31.511719 C 44.488281 32.472656 43.980469 33.734375 43.980469 35.28125 C 43.980469 36.082031 44.105469 36.8125 44.355469 37.484375 C 44.605469 38.152344 44.996094 38.773438 45.519531 39.335938 C 46.042969 39.898438 47.089844 40.660156 48.648438 41.632812 C 50.5625 42.808594 51.816406 43.761719 52.417969 44.507812 C 53.019531 45.25 53.320312 46.03125 53.320312 46.84375 C 53.320312 47.933594 52.964844 48.804688 52.230469 49.457031 C 51.496094 50.109375 50.515625 50.4375 49.296875 50.4375 C 48.015625 50.4375 46.898438 49.980469 45.9375 49.078125 C 44.976562 48.171875 44.492188 46.976562 44.480469 45.476562 L 43.886719 45.476562 L 43.886719 50.921875 L 44.480469 50.921875 C 44.664062 50.40625 44.917969 50.140625 45.246094 50.140625 C 45.40625 50.140625 45.777344 50.25 46.355469 50.457031 C 47.765625 50.960938 48.921875 51.207031 49.832031 51.207031 C 51.398438 51.207031 52.738281 50.652344 53.851562 49.53125 C 54.964844 48.410156 55.527344 47.054688 55.527344 45.476562 C 55.527344 44.25 55.15625 43.160156 54.429688 42.210938 C 53.699219 41.261719 52.285156 40.152344 50.167969 38.882812 C 48.347656 37.78125 47.164062 36.886719 46.617188 36.1875 C 46.070312 35.488281 45.789062 34.71875 45.789062 33.871094 C 45.789062 32.953125 46.125 32.21875 46.785156 31.667969 C 47.445312 31.121094 48.308594 30.847656 49.394531 30.847656 C 50.609375 30.847656 51.625 31.210938 52.429688 31.941406 C 53.230469 32.675781 53.695312 33.691406 53.832031 34.996094 L 54.429688 34.996094 L 54.429688 30.277344 L 53.875 30.277344 C 53.804688 30.519531 53.742188 30.671875 53.6875 30.742188 C 53.628906 30.8125 53.523438 30.847656 53.359375 30.847656 C 53.167969 30.847656 52.824219 30.765625 52.335938 30.605469 C 51.289062 30.25 50.324219 30.066406 49.433594 30.066406 Z M 68.941406 30.066406 C 66.972656 30.066406 65.1875 30.535156 63.570312 31.46875 C 61.953125 32.402344 60.671875 33.695312 59.726562 35.34375 C 58.785156 36.992188 58.3125 38.746094 58.3125 40.609375 C 58.3125 43.117188 59.128906 45.351562 60.773438 47.308594 C 62.421875 49.265625 64.390625 50.484375 66.679688 50.953125 C 67.203125 51.226562 67.953125 51.933594 68.933594 53.082031 C 70.035156 54.371094 70.96875 55.304688 71.738281 55.859375 C 72.503906 56.417969 73.335938 56.824219 74.210938 57.09375 C 75.085938 57.359375 76.03125 57.492188 77.058594 57.492188 C 78.296875 57.492188 79.410156 57.277344 80.386719 56.828125 L 80.167969 56.28125 C 79.597656 56.488281 78.992188 56.585938 78.355469 56.585938 C 77.492188 56.585938 76.617188 56.300781 75.738281 55.722656 C 74.863281 55.144531 73.765625 54.042969 72.460938 52.417969 C 71.847656 51.636719 71.421875 51.144531 71.183594 50.953125 C 73.6875 50.460938 75.746094 49.242188 77.351562 47.289062 C 78.957031 45.335938 79.757812 43.109375 79.757812 40.609375 C 79.757812 37.644531 78.710938 35.152344 76.628906 33.121094 C 74.542969 31.089844 71.980469 30.066406 68.941406 30.066406 Z M 81.121094 30.066406 L 81.152344 30.710938 C 82.460938 30.710938 83.195312 31.097656 83.359375 31.878906 C 83.421875 32.160156 83.449219 32.675781 83.457031 33.417969 L 83.445312 47.625 C 83.433594 48.6875 83.285156 49.363281 82.996094 49.65625 C 82.707031 49.949219 82.214844 50.132812 81.507812 50.203125 L 81.476562 50.847656 L 94.542969 50.847656 L 94.878906 47.625 L 94.28125 47.625 C 94.113281 48.503906 93.722656 49.132812 93.097656 49.488281 C 92.476562 49.847656 91.371094 50.027344 89.78125 50.027344 L 88.542969 50.027344 C 87.109375 50.027344 86.28125 49.503906 86.0625 48.457031 C 86.019531 48.25 86.003906 48.027344 86 47.78125 L 86.050781 33.417969 C 86.050781 32.359375 86.183594 31.648438 86.460938 31.300781 C 86.738281 30.953125 87.242188 30.761719 87.96875 30.710938 L 87.9375 30.066406 Z M 69.152344 30.847656 C 71.371094 30.847656 73.1875 31.726562 74.585938 33.5 C 75.988281 35.277344 76.679688 37.710938 76.679688 40.789062 C 76.679688 43.707031 75.976562 46.046875 74.566406 47.804688 C 73.15625 49.5625 71.277344 50.4375 68.941406 50.4375 C 66.699219 50.4375 64.882812 49.535156 63.488281 47.71875 C 62.09375 45.90625 61.402344 43.550781 61.402344 40.652344 C 61.402344 37.675781 62.101562 35.292969 63.507812 33.511719 C 64.914062 31.734375 66.796875 30.847656 69.152344 30.847656 Z M 99.203125 33.902344 C 98.886719 33.902344 98.640625 34.011719 98.460938 34.226562 C 98.273438 34.445312 98.21875 34.707031 98.28125 35.027344 C 98.34375 35.339844 98.519531 35.609375 98.796875 35.839844 C 99.070312 36.066406 99.367188 36.1875 99.6875 36.1875 C 99.992188 36.1875 100.230469 36.066406 100.398438 35.839844 C 100.566406 35.609375 100.617188 35.339844 100.554688 35.027344 C 100.488281 34.707031 100.320312 34.445312 100.0625 34.226562 C 99.800781 34.011719 99.511719 33.902344 99.203125 33.902344 Z M 107.820312 36.082031 C 107.28125 38.175781 106.105469 39.3125 104.304688 39.492188 L 104.324219 40.09375 L 106.429688 40.09375 L 106.386719 47.191406 C 106.390625 48.40625 106.425781 49.214844 106.511719 49.625 C 106.71875 50.609375 107.359375 51.109375 108.429688 51.109375 C 109.976562 51.109375 111.601562 50.164062 113.296875 48.265625 L 112.785156 47.824219 C 111.558594 49.074219 110.476562 49.699219 109.527344 49.699219 C 108.945312 49.699219 108.585938 49.363281 108.449219 48.699219 C 108.414062 48.539062 108.398438 48.347656 108.398438 48.128906 L 108.417969 40.09375 L 111.632812 40.09375 L 111.601562 39.136719 L 108.429688 39.136719 L 108.429688 36.082031 Z M 120.25 38.757812 C 118.453125 38.757812 116.992188 39.636719 115.851562 41.378906 C 114.722656 43.125 114.371094 45.0625 114.816406 47.191406 C 115.078125 48.441406 115.601562 49.40625 116.398438 50.089844 C 117.195312 50.769531 118.207031 51.109375 119.414062 51.109375 C 120.539062 51.109375 122.105469 50.824219 122.765625 50.246094 C 123.425781 49.671875 124.035156 48.734375 124.597656 47.457031 L 124.148438 46.980469 C 123.25 48.640625 121.4375 49.476562 120.074219 49.476562 C 118.195312 49.476562 117.046875 48.441406 116.617188 46.382812 C 116.5625 46.117188 116.519531 45.835938 116.492188 45.539062 C 118.726562 45.183594 120.417969 44.554688 121.558594 43.644531 C 122.703125 42.734375 123.847656 41.765625 123.632812 40.746094 C 123.507812 40.140625 123.191406 39.664062 122.710938 39.304688 C 122.222656 38.945312 120.957031 38.757812 120.25 38.757812 Z M 100.597656 38.832031 L 96.722656 39.726562 L 96.722656 40.421875 L 98.0625 40.253906 C 98.710938 40.253906 99.09375 40.546875 99.214844 41.136719 C 99.253906 41.335938 99.28125 41.609375 99.289062 41.957031 L 99.246094 48.332031 C 99.234375 49.210938 99.136719 49.722656 98.941406 49.878906 C 98.746094 50.03125 98.226562 50.109375 97.382812 50.109375 L 97.359375 50.710938 L 103.507812 50.710938 L 103.496094 50.109375 C 102.644531 50.109375 102.089844 50.042969 101.84375 49.910156 C 101.601562 49.777344 101.433594 49.539062 101.359375 49.171875 C 101.304688 48.910156 101.28125 48.453125 101.277344 47.824219 L 101.296875 38.832031 Z M 119.265625 40.011719 C 119.640625 40.011719 120.003906 40.15625 120.367188 40.441406 C 120.726562 40.726562 120.945312 41.046875 121.015625 41.390625 C 121.367188 43.082031 119.875 44.253906 116.511719 44.90625 C 116.417969 43.671875 116.628906 42.550781 117.171875 41.539062 C 117.710938 40.523438 118.414062 40.011719 119.265625 40.011719 Z M 119.265625 40.011719 "/>
<path style=" stroke:none;fill-rule:nonzero;fill:rgb(5.882353%,50.196078%,80%);fill-opacity:1;" d="M 40.757812 5.742188 L 7.414062 5.742188 C 5.179688 5.742188 3.351562 7.582031 3.351562 9.828125 L 3.351562 46.8125 C 3.351562 49.058594 5.179688 50.898438 7.414062 50.898438 L 29.375 50.898438 C 29.125 39.90625 32.855469 18.578125 40.757812 5.742188 Z M 40.757812 5.742188 "/>
<path style=" stroke:none;fill-rule:nonzero;fill:url(#linear0);" d="M 39.542969 6.933594 L 7.414062 6.933594 C 5.828125 6.933594 4.535156 8.230469 4.535156 9.828125 L 4.535156 44.113281 C 11.8125 41.304688 22.734375 38.878906 30.285156 38.992188 C 31.804688 31.007812 36.265625 15.367188 39.542969 6.933594 Z M 39.542969 6.933594 "/>
<path style=" stroke:none;fill-rule:nonzero;fill:rgb(0%,23.137255%,34.117647%);fill-opacity:1;" d="M 48.535156 4.53125 C 46.25 2.484375 43.484375 3.304688 40.757812 5.742188 C 40.351562 6.101562 39.945312 6.503906 39.542969 6.933594 C 34.875 11.914062 30.542969 21.140625 29.199219 28.1875 C 29.722656 29.253906 30.132812 30.621094 30.402344 31.664062 C 30.46875 31.929688 30.53125 32.183594 30.582031 32.394531 C 30.703125 32.902344 30.765625 33.230469 30.765625 33.230469 C 30.765625 33.230469 30.722656 33.070312 30.550781 32.570312 C 30.519531 32.472656 30.480469 32.367188 30.4375 32.242188 C 30.421875 32.191406 30.394531 32.132812 30.367188 32.066406 C 30.0625 31.351562 29.21875 29.851562 28.847656 29.195312 C 28.53125 30.136719 28.253906 31.015625 28.019531 31.8125 C 29.085938 33.78125 29.738281 37.15625 29.738281 37.15625 C 29.738281 37.15625 29.683594 36.9375 29.414062 36.175781 C 29.175781 35.5 27.988281 33.40625 27.703125 32.914062 C 27.222656 34.703125 27.03125 35.910156 27.203125 36.207031 C 27.539062 36.777344 27.859375 37.757812 28.140625 38.847656 C 28.773438 41.296875 29.210938 44.277344 29.210938 44.277344 C 29.210938 44.277344 29.226562 44.476562 29.25 44.78125 C 29.164062 46.835938 29.214844 48.96875 29.375 50.898438 C 29.582031 53.449219 29.980469 55.640625 30.480469 56.816406 L 30.824219 56.628906 C 30.085938 54.316406 29.785156 51.285156 29.914062 47.792969 C 30.113281 42.453125 31.335938 36.011719 33.59375 29.300781 C 37.410156 19.167969 42.699219 11.039062 47.542969 7.15625 C 43.128906 11.167969 37.15625 24.144531 35.367188 28.953125 C 33.363281 34.332031 31.945312 39.382812 31.089844 44.222656 C 32.566406 39.6875 37.335938 37.738281 37.335938 37.738281 C 37.335938 37.738281 39.675781 34.835938 42.410156 30.6875 C 40.773438 31.0625 38.082031 31.707031 37.183594 32.085938 C 35.851562 32.648438 35.496094 32.839844 35.496094 32.839844 C 35.496094 32.839844 39.800781 30.203125 43.492188 29.007812 C 48.570312 20.960938 54.105469 9.53125 48.535156 4.53125 "/>
</g>
</svg>
